COLOR/action 16/16/database-change-key.svg

<svg height="16" width="16" xmlns="http://www.w3.org/2000/svg"><g stroke-width=".9375" transform="matrix(-1 0 0 1 15.7 -.2)"><path d="m5.814292 5.7973421-2.0205987.7324633 3.4299398 3.3451941h1.7138672v1.8750005h1.8749997v.9375.9375h.9375.9375v1.713867l.161133.161133h2.651367z" fill="#e8973e"/><path d="m6.3256838 3.674316-.5113918 2.1230261 9.685708 9.7026579v-2.651367z" fill="#fdc92b"/><path d="m10.511719.30078125a4.6875 4.6875 0 0 0 -4.6875002 4.68749995 4.6875 4.6875 0 0 0 4.6875002 4.6875 4.6875 4.6875 0 0 0 4.6875-4.6875 4.6875 4.6875 0 0 0 -4.6875-4.68749995zm.9375 1.87499995a1.875 1.875 0 0 1 1.875 1.875 1.875 1.875 0 0 1 -1.875 1.875 1.875 1.875 0 0 1 -1.8750002-1.875 1.875 1.875 0 0 1 1.8750002-1.875z" fill="#fdc92b" transform="matrix(-1 0 0 1 15.7 .2)"/><path d="m5.1875003.49999951a4.6875 4.6875 0 0 0 -4.68749999 4.68749999 4.6875 4.6875 0 0 0 .00915469.1849365 4.6875 4.6875 0 0 1 4.6783453-4.40368649 4.6875 4.6875 0 0 1 4.6765134 4.48974609 4.6875 4.6875 0 0 0 .0109866-.2709961 4.6875 4.6875 0 0 0 -4.6875-4.68749999zm4.4787591 6.51672369a4.6875 4.6875 0 0 1 -.1190185.3497314l5.9527591 5.9509284v-.46875z" fill="#fff" opacity=".3"/><path d="m.509155 4.903686a4.6875 4.6875 0 0 0 -.009155.2838135 4.6875 4.6875 0 0 0 4.6875 4.6875 4.6875 4.6875 0 0 0 1.7120362-.324097l.3240966.324097h1.7138672v-.46875h-1.7138669l-.3240966-.3240967a4.6875 4.6875 0 0 1 -1.7120362.3240967 4.6875 4.6875 0 0 1 -4.6783453-4.5025635zm9.3566897.08606a4.6875 4.6875 0 0 1 -.3186038 1.4392086l.1190185.1190186a4.6875 4.6875 0 0 0 .2087409-1.3604737 4.6875 4.6875 0 0 0 -.0091556-.1977535zm-.9283444 6.291504v.46875h1.8749997v-.46875zm1.8749997 1.875v.46875h.9375.9375v-.46875h-.9375zm1.875 1.713867v.46875l.161133.161133h2.651367v-.46875h-2.651367z" opacity=".2"/></g><circle cx="11.5" cy="11.5" fill="#40b1f8" r="4.5" transform="matrix(0 1 1 0 0 0)"/><path d="m11.5 8.9999998a2.4999935 2.4999935 0 0 0 -2.4999996 2.5000002 2.4999935 2.4999935 0 0 0 .499442 1.495536l.5119976-.511998a1.7857142 1.7857142 0 0 1 -.2971536-.983538 1.7857142 1.7857142 0 0 1 1.7857136-1.7857142 1.7857142 1.7857142 0 0 1 .983538.2971542l.511998-.5119982a2.4999935 2.4999935 0 0 0 -1.495536-.499442zm2.000558 1.0044642-.511998.511998a1.7857142 1.7857142 0 0 1 .297154.983538 1.7857142 1.7857142 0 0 1 -1.785714 1.785714 1.7857142 1.7857142 0 0 1 -.983538-.297154l-.511998.511998a2.4999935 2.4999935 0 0 0 1.495536.499442 2.4999935 2.4999935 0 0 0 2.5-2.5 2.4999935 2.4999935 0 0 0 -.499442-1.495536z" fill="#fff"/><g stroke-width="1.03493"><path d="m11.500002 6.9980465a4.5 4.5006102 0 0 0 -4.5000008 4.5019535 4.5 4.5006102 0 0 0 .01172.292969 4.5 4.5006102 0 0 1 4.4882808-4.2949225 4.5 4.5006102 0 0 1 4.488281 4.2089845 4.5 4.5006102 0 0 0 .01172-.207031 4.5 4.5006102 0 0 0 -4.500001-4.5019535z" fill="#fff" opacity=".3"/><path d="m11.500002 16a4.5 4.5006102 0 0 0 4.5-4.501953 4.5 4.5006102 0 0 0 -.01172-.292969 4.5 4.5006102 0 0 1 -4.48828 4.294922 4.5 4.5006102 0 0 1 -4.4882818-4.208984 4.5 4.5006102 0 0 0 -.01172.207031 4.5 4.5006102 0 0 0 4.5000018 4.501953z" opacity=".2"/></g></svg>

<?xml version="1.0" encoding="UTF-8" standalone="no"?>
<svg
   xmlns:dc="http://purl.org/dc/elements/1.1/"
   xmlns:cc="http://creativecommons.org/ns#"
   xmlns:rdf="http://www.w3.org/1999/02/22-rdf-syntax-ns#"
   xmlns:svg="http://www.w3.org/2000/svg"
   xmlns="http://www.w3.org/2000/svg"
   xmlns:sodipodi="http://sodipodi.sourceforge.net/DTD/sodipodi-0.dtd"
   xmlns:inkscape="http://www.inkscape.org/namespaces/inkscape"
   height="16"
   width="16"
   version="1.1"
   id="svg20"
   sodipodi:docname="database-change-key.svg"
   inkscape:version="0.92.4 (5da689c313, 2019-01-14)">
  <metadata
     id="metadata26">
    <rdf:RDF>
      <cc:Work
         rdf:about="">
        <dc:format>image/svg+xml</dc:format>
        <dc:type
           rdf:resource="http://purl.org/dc/dcmitype/StillImage" />
      </cc:Work>
    </rdf:RDF>
  </metadata>
  <defs
     id="defs24" />
  <sodipodi:namedview
     pagecolor="#ffffff"
     bordercolor="#808080"
     borderopacity="1"
     objecttolerance="10"
     gridtolerance="10"
     guidetolerance="10"
     inkscape:pageopacity="0"
     inkscape:pageshadow="2"
     inkscape:window-width="1920"
     inkscape:window-height="1016"
     id="namedview22"
     showgrid="false"
     inkscape:zoom="59"
     inkscape:cx="6.2311431"
     inkscape:cy="2.3382334"
     inkscape:window-x="0"
     inkscape:window-y="27"
     inkscape:window-maximized="1"
     inkscape:current-layer="svg20" />
  <g
     stroke-width=".9375"
     transform="matrix(-1 0 0 1 15.7 -.2)"
     id="g14">
    <path
       d="M 5.814292,5.7973421 3.7936933,6.5298054 7.2236331,9.8749995 H 8.9375003 V 11.75 H 10.8125 v 0.9375 0.9375 h 0.9375 0.9375 v 1.713867 L 12.848633,15.5 H 15.5 Z"
       id="path2"
       inkscape:connector-curvature="0"
       style="fill:#e8973e"
       sodipodi:nodetypes="cccccccccccccc" />
    <path
       d="M 6.3256838,3.674316 5.814292,5.7973421 15.5,15.5 v -2.651367 z"
       id="path4"
       inkscape:connector-curvature="0"
       style="fill:#fdc92b"
       sodipodi:nodetypes="ccccc" />
    <path
       d="M 10.511719 0.30078125 A 4.6875 4.6875 0 0 0 5.8242188 4.9882812 A 4.6875 4.6875 0 0 0 10.511719 9.6757812 A 4.6875 4.6875 0 0 0 15.199219 4.9882812 A 4.6875 4.6875 0 0 0 10.511719 0.30078125 z M 11.449219 2.1757812 A 1.875 1.875 0 0 1 13.324219 4.0507812 A 1.875 1.875 0 0 1 11.449219 5.9257812 A 1.875 1.875 0 0 1 9.5742188 4.0507812 A 1.875 1.875 0 0 1 11.449219 2.1757812 z "
       transform="matrix(-1,0,0,1,15.7,0.2)"
       id="circle6"
       style="fill:#fdc92b;fill-opacity:1" />
    <path
       d="m5.1875003.49999951a4.6875 4.6875 0 0 0 -4.68749999 4.68749999 4.6875 4.6875 0 0 0 .00915469.1849365 4.6875 4.6875 0 0 1 4.6783453-4.40368649 4.6875 4.6875 0 0 1 4.6765134 4.48974609 4.6875 4.6875 0 0 0 .0109866-.2709961 4.6875 4.6875 0 0 0 -4.6875-4.68749999zm4.4787591 6.51672369a4.6875 4.6875 0 0 1 -.1190185.3497314l5.9527591 5.9509284v-.46875z"
       fill="#fff"
       opacity=".3"
       id="path10" />
    <path
       d="m.509155 4.903686a4.6875 4.6875 0 0 0 -.009155.2838135 4.6875 4.6875 0 0 0 4.6875 4.6875 4.6875 4.6875 0 0 0 1.7120362-.324097l.3240966.324097h1.7138672v-.46875h-1.7138669l-.3240966-.3240967a4.6875 4.6875 0 0 1 -1.7120362.3240967 4.6875 4.6875 0 0 1 -4.6783453-4.5025635zm9.3566897.08606a4.6875 4.6875 0 0 1 -.3186038 1.4392086l.1190185.1190186a4.6875 4.6875 0 0 0 .2087409-1.3604737 4.6875 4.6875 0 0 0 -.0091556-.1977535zm-.9283444 6.291504v.46875h1.8749997v-.46875zm1.8749997 1.875v.46875h.9375.9375v-.46875h-.9375zm1.875 1.713867v.46875l.161133.161133h2.651367v-.46875h-2.651367z"
       opacity=".2"
       id="path12" />
  </g>
  <circle
     cx="11.5"
     cy="11.5"
     r="4.5"
     transform="matrix(0,1,1,0,0,0)"
     id="circle16"
     style="fill:#40b1f8" />
  <path
     d="M 11.5,8.9999998 A 2.4999935,2.4999935 0 0 0 9.0000004,11.5 2.4999935,2.4999935 0 0 0 9.4994424,12.995536 L 10.01144,12.483538 A 1.7857142,1.7857142 0 0 1 9.7142864,11.5 1.7857142,1.7857142 0 0 1 11.5,9.7142858 1.7857142,1.7857142 0 0 1 12.483538,10.01144 L 12.995536,9.4994418 A 2.4999935,2.4999935 0 0 0 11.5,8.9999998 Z m 2.000558,1.0044642 -0.511998,0.511998 A 1.7857142,1.7857142 0 0 1 13.285714,11.5 1.7857142,1.7857142 0 0 1 11.5,13.285714 1.7857142,1.7857142 0 0 1 10.516462,12.98856 l -0.511998,0.511998 A 2.4999935,2.4999935 0 0 0 11.5,14 2.4999935,2.4999935 0 0 0 14,11.5 2.4999935,2.4999935 0 0 0 13.500558,10.004464 Z"
     id="path18"
     inkscape:connector-curvature="0"
     style="fill:#ffffff" />
  <path
     id="circle833"
     d="M 11.500002,6.9980465 A 4.5,4.5006102 0 0 0 7.0000012,11.5 4.5,4.5006102 0 0 0 7.0117212,11.792969 4.5,4.5006102 0 0 1 11.500002,7.4980465 4.5,4.5006102 0 0 1 15.988283,11.707031 4.5,4.5006102 0 0 0 16.000003,11.5 4.5,4.5006102 0 0 0 11.500002,6.9980465 Z"
     style="opacity:0.3;fill:#ffffff;fill-opacity:1;stroke-width:1.03493011"
     inkscape:connector-curvature="0" />
  <path
     inkscape:connector-curvature="0"
     style="opacity:0.2;fill:#000000;fill-opacity:1;stroke-width:1.03493011"
     d="m 11.500002,16 a 4.5,4.5006102 0 0 0 4.5,-4.501953 4.5,4.5006102 0 0 0 -0.01172,-0.292969 A 4.5,4.5006102 0 0 1 11.500002,15.5 4.5,4.5006102 0 0 1 7.0117202,11.291016 4.5,4.5006102 0 0 0 7.0000002,11.498047 4.5,4.5006102 0 0 0 11.500002,16 Z"
     id="path854" />
</svg>
